public/assets/images/icons/red/visibility-invisible/question-circle.svg

<svg width="16" height="16" xmlns="http://www.w3.org/2000/svg" viewBox="0 0 16 16" shape-rendering="geometricPrecision" fill="#cb1800"><defs><mask id="a"><rect fill="#fff" width="100%" height="100%"/><path d="M12.997.858a4.809 4.809 0 0 0-4.253 2.563 4.81 4.81 0 0 0 8.506 0A4.812 4.812 0 0 0 12.997.858z" fill="#000"/></mask></defs><path d="M12.997 1.611a3.394 3.394 0 0 0-3.003 1.81 3.397 3.397 0 0 0 6.006 0 3.398 3.398 0 0 0-3.003-1.81zm-.001 3.396a1.587 1.587 0 1 1 0-3.174 1.587 1.587 0 0 1 0 3.174z"/><g mask="url(#a)"><path d="M7.999.97a7.03 7.03 0 0 0 0 14.06 7.03 7.03 0 1 0 0-14.06zm0 12.638a5.616 5.616 0 0 1-5.607-5.605 5.616 5.616 0 0 1 5.607-5.611 5.617 5.617 0 0 1 5.609 5.611 5.615 5.615 0 0 1-5.609 5.605zm-.082-3.4c-.662 0-1.132.471-1.132 1.156 0 .664.458 1.16 1.121 1.16h.012c.688 0 1.147-.496 1.147-1.16-.011-.685-.459-1.156-1.148-1.156zm.18-6.563c-.904 0-1.656.256-2.127.523l.434 1.387c.33-.229.839-.381 1.262-.381.637.025.93.318.93.764 0 .434-.333.842-.741 1.338-.574.676-.788 1.338-.75 1.988l.012.332h1.694v-.228c-.013-.574.178-1.074.649-1.594.486-.537 1.083-1.174 1.083-2.143 0-1.056-.765-1.986-2.446-1.986z"/></g></svg>

<?xml version="1.0"?><!DOCTYPE svg PUBLIC "-//W3C//DTD SVG 1.1//EN" "http://www.w3.org/Graphics/SVG/1.1/DTD/svg11.dtd"><svg width="16px" height="16px" xmlns="http://www.w3.org/2000/svg" viewBox="0 0 16 16" shape-rendering="geometricPrecision" fill="#cb1800"><defs><mask id="visibility-invisible-path"><rect fill="#fff" width="100%" height="100%"/><path d="M12.997,0.858c-1.845,0-3.446,1.039-4.253,2.563c0.808,1.523,2.408,2.562,4.253,2.562 c1.844,0,3.444-1.039,4.253-2.562C16.441,1.897,14.841,0.858,12.997,0.858z" fill="#000"/></mask></defs><g id="visibility-invisible" display="inline" fill="#cb1800"><g><g><path d="M12.997,1.611c-1.303,0-2.433,0.733-3.003,1.81c0.57,1.075,1.7,1.809,3.003,1.809c1.302,0,2.432-0.733,3.003-1.809 C15.429,2.345,14.299,1.611,12.997,1.611z M12.996,5.007c-0.876,0-1.587-0.71-1.587-1.586c0-0.877,0.711-1.588,1.587-1.588 c0.877,0,1.588,0.711,1.588,1.588C14.584,4.297,13.873,5.007,12.996,5.007z"/></g></g></g><g mask="url(#visibility-invisible-path)"><path d="M7.999,0.97c-3.882,0-7.029,3.147-7.029,7.033c0.001,3.881,3.147,7.025,7.029,7.027 c3.883-0.002,7.031-3.146,7.031-7.027C15.03,4.116,11.882,0.97,7.999,0.97z M7.999,13.608c-3.096-0.006-5.601-2.512-5.607-5.605 c0.006-3.1,2.511-5.606,5.607-5.611c3.098,0.006,5.603,2.512,5.609,5.611C13.602,11.097,11.097,13.603,7.999,13.608z M7.917,10.208c-0.662,0-1.132,0.471-1.132,1.156c0,0.664,0.458,1.16,1.121,1.16h0.012c0.688,0,1.147-0.496,1.147-1.16 C9.054,10.679,8.606,10.208,7.917,10.208z M8.097,3.645c-0.904,0-1.656,0.256-2.127,0.523l0.434,1.387 c0.33-0.229,0.839-0.381,1.262-0.381c0.637,0.025,0.93,0.318,0.93,0.764c0,0.434-0.333,0.842-0.741,1.338 c-0.574,0.676-0.788,1.338-0.75,1.988l0.012,0.332h1.694V9.368C8.798,8.794,8.989,8.294,9.46,7.774 c0.486-0.537,1.083-1.174,1.083-2.143C10.543,4.575,9.778,3.645,8.097,3.645z"/></g></svg>
